static/characters/youkanman/front-standing.svg

<svg height="182" width="160" xmlns="http://www.w3.org/2000/svg" xml:space="preserve" style="fill-rule:evenodd;clip-rule:evenodd;stroke-linecap:round;stroke-linejoin:round;stroke-miterlimit:1.5"><g opacity=".95"><path d="m542.173 844.83.977-139.625 145.559-72.779 45.537 22.827 1.221 137.42-148.739 76.039-44.555-23.882Z" style="fill:#6c4444;stroke:#000;stroke-width:2.78px" transform="translate(-145.241 -180.26) scale(.35968)"/><path d="m702.177 596.153 512.733 2.672v41.795H700.395l1.782-44.467Z" style="fill-rule:nonzero" transform="matrix(.04818 -.02409 0 .04818 33.327 67.302)"/><path d="m702.177 596.153 512.733 2.672v41.795H700.395l1.782-44.467Z" style="fill-rule:nonzero" transform="matrix(.04818 -.02409 0 .04818 42.959 47.158)"/><path d="m702.177 596.153 512.733 2.672v41.795H700.395l1.782-44.467Z" style="fill-rule:nonzero" transform="matrix(.04818 -.02409 0 .04818 18.204 59.296)"/><path d="m702.177 596.153 512.733 2.672v41.795H700.395l1.782-44.467Z" style="fill:#5e3b3b;fill-rule:nonzero" transform="matrix(.04818 -.02409 0 .04818 17.496 109.18)"/><path d="m702.177 596.153 512.733 2.672v41.795H700.395l1.782-44.467Z" style="fill:#5e3b3b;fill-rule:nonzero" transform="matrix(.04818 -.02409 0 .04818 42.286 96.786)"/><path d="m702.177 596.153 512.733 2.672v41.795H700.395l1.782-44.467Z" style="fill-rule:nonzero" transform="matrix(.0285 .01406 0 .04818 30.15 33.262)"/><path d="m702.177 596.153 512.733 2.672v41.795H700.395l1.782-44.467Z" style="fill-rule:nonzero" transform="matrix(.0285 .01406 0 .04818 83.262 7.96)"/><path d="m702.177 596.153 512.733 2.672v41.795H700.395l1.782-44.467Z" style="fill:#5e3b3b;fill-rule:nonzero" transform="matrix(.0285 .01406 0 .04818 82.52 57.554)"/><path d="m702.177 596.153 512.733 2.672v41.795H700.395l1.782-44.467Z" style="fill-rule:nonzero" transform="matrix(.0285 .01406 0 .04818 29.38 84.123)"/><path d="M292.815 789.932c108.957 68.602 188.321 137.878 238.092 207.825l-50.443 42.373c-51.116-73.984-127.79-144.604-230.021-211.861l-31.176-31.021 32.085-38.249 41.463 30.933Z" style="fill-rule:nonzero" transform="matrix(.04818 -.02409 0 .04818 32.259 63.244)"/><path style="fill-rule:nonzero" d="M625.74 644.656h40.354v512.502H625.74z" transform="matrix(.04818 -.02409 0 .04818 34.674 66.671)"/><path style="fill-rule:nonzero" d="M625.74 644.656h40.354v512.502H625.74z" transform="matrix(.04818 -.02409 0 .04818 18.764 82.933)"/><path style="fill-rule:nonzero" d="M625.74 644.656h40.354v512.502H625.74z" transform="matrix(.04818 -.02409 0 .04818 18.89 57.945)"/><path style="fill:#5e3b3b;fill-rule:nonzero" d="M625.74 644.656h40.354v512.502H625.74z" transform="matrix(.04818 -.02409 0 .04818 71.355 33.777)"/><path style="fill:#5e3b3b;fill-rule:nonzero" d="M625.74 644.656h40.354v512.502H625.74z" transform="matrix(.04818 -.02409 0 .04818 71.355 57.305)"/><path d="m1216.93 597.043 516.3 2.673-1.78 40.904h-514.52v-43.577Z" style="fill-rule:nonzero" transform="matrix(.04818 -.02409 0 .04818 32.914 67.746)"/><path style="fill-rule:nonzero" d="M791.193 856.517h86.762v86.762h-86.762z" transform="matrix(.04818 -.02409 0 .04818 36.529 64.084)"/><path d="m1222.99 1088.56-185.63-336.965 38.33-22.195 46.41 82.727h201.77l46.41-82.727 38.34 22.195-185.63 336.965Zm-80.71-234.061 80.71 143.258 80.7-143.258h-161.41Z" style="fill-rule:nonzero" transform="matrix(.04818 -.02409 0 .04818 33.9 67.05)"/><path style="fill-rule:nonzero" d="M1566 856.517h86.762v86.762H1566z" transform="matrix(.04818 -.02409 0 .04818 32.271 66.733)"/><path style="fill-rule:nonzero" d="M1779.88 644.656h40.354v512.502h-40.354z" transform="matrix(.04818 -.02409 0 .04818 32.686 67.623)"/><path d="M2012.23 1032.13c-24.53 23.49-50.86 44.88-79.01 62.63l-34.27-16.69-14.15-29.87c48.82-24.95 91.52-56.036 128.1-93.244" style="fill:#5e3b3b;fill-rule:nonzero" transform="matrix(.04818 -.02409 0 .04818 21.58 64.098)"/><path d="M2012.9 954.956a478.284 478.284 0 0 0 25.25-27.819c43.04-51.116 76.67-121.736 100.88-211.861l27.58-1.668 26.9 25.881c9.42 5.38 10.14 17.61-3.31 22.991-28.25 78.018-62.6 133.046-97.58 178.781-24.19 31.533-50.99 62.709-80.39 90.869" style="fill-rule:nonzero" transform="matrix(.04818 -.02409 0 .04818 21.58 64.098)"/><path style="fill-rule:nonzero" d="M583.367 1161.19h40.354v512.502h-40.354z" transform="matrix(.04818 -.02409 0 .04818 36.716 65.13)"/><path d="M664.076 1651.5H1178.6v43.58l-514.524-3.57v-40.01Z" style="fill-rule:nonzero" transform="matrix(.04818 -.02409 0 .04818 35.356 66.555)"/><path d="M1180.61 1651.5h514.52l-3.56 36.45-505.61 8.02-5.35-44.47Z" style="fill-rule:nonzero" transform="matrix(.04818 -.02409 0 .04818 35.942 65.917)"/><path style="fill-rule:nonzero" d="M1737.51 1161.19h40.354v512.502h-40.354z" transform="matrix(.04818 -.02409 0 .04818 34.608 66.555)"/><path d="m977.928 1839.54 1.28 349.8c-.739 18.14-21.346 25.15-43.502 5.78-2.49-2.18-13.379-18.53-13.379-18.53l-.889-337.55" style="fill-rule:nonzero" transform="matrix(.04818 -.02409 0 .04818 27.026 61.749)"/><path d="m921.438 1839.04-.403-153.29c1.698-13.06 9.491-36.86 36.473-15.81 2.802 2.18 19.918 32.33 19.918 32.33l.502 137.27" style="fill:#5e3b3b;fill-rule:nonzero" transform="matrix(.04818 -.02409 0 .04818 27.026 61.749)"/><path d="m1382.65 1834.37-1.1-150.4c-2.48-17.48 13.67-35.09 39.36-14.8 3.04 2.4 15.25 25.91 15.25 25.91l.96 132.89" style="fill:#5e3b3b;fill-rule:nonzero" transform="matrix(.04818 -.02409 0 .04818 25.638 62.603)"/><path d="m1437.12 1827.97 2.6 357.81c-1.46 20.05-23.49 24.15-40.58 10.65-2.8-2.21-14.03-26.28-14.03-26.28l-2.46-335.78" style="fill-rule:nonzero" transform="matrix(.04818 -.02409 0 .04818 25.638 62.603)"/></g></svg>

<?xml version="1.0" encoding="UTF-8" standalone="no"?>
<!DOCTYPE svg PUBLIC "-//W3C//DTD SVG 1.1//EN" "http://www.w3.org/Graphics/SVG/1.1/DTD/svg11.dtd">
<svg height="182" width="160" viewBox="0 0 160 182" version="1.1" xmlns="http://www.w3.org/2000/svg" xmlns:xlink="http://www.w3.org/1999/xlink" xml:space="preserve" xmlns:serif="http://www.serif.com/" style="fill-rule:evenodd;clip-rule:evenodd;stroke-linecap:round;stroke-linejoin:round;stroke-miterlimit:1.5;">
    <g id="FrontStanding" transform="matrix(0.0481795,-0.0240898,0,0.0481795,34.6084,66.7683)">
        <g opacity="0.95">
            <g transform="matrix(7.46545,3.73272,0,7.46545,-3732.91,-6993.7)">
                <path d="M542.173,844.83L543.15,705.205L688.709,632.426L734.246,655.253L735.467,792.673L586.728,868.712L542.173,844.83Z" style="fill:rgb(108,68,68);stroke:black;stroke-width:2.78px;"/>
            </g>
            <g transform="matrix(1,0,0,1,-26.5986,-2.21655)">
                <path d="M702.177,596.153L1214.91,598.825L1214.91,640.62L700.395,640.62L702.177,596.153Z" style="fill-rule:nonzero;"/>
            </g>
            <g transform="matrix(1,0,0,1,173.323,-320.358)">
                <path d="M702.177,596.153L1214.91,598.825L1214.91,640.62L700.395,640.62L702.177,596.153Z" style="fill-rule:nonzero;"/>
            </g>
            <g transform="matrix(1,0,0,1,-340.487,-325.33)">
                <path d="M702.177,596.153L1214.91,598.825L1214.91,640.62L700.395,640.62L702.177,596.153Z" style="fill-rule:nonzero;"/>
            </g>
            <g transform="matrix(1,0,0,1,-355.17,702.704)">
                <path d="M702.177,596.153L1214.91,598.825L1214.91,640.62L700.395,640.62L702.177,596.153Z" style="fill:rgb(94,59,59);fill-rule:nonzero;"/>
            </g>
            <g transform="matrix(1,0,0,1,159.349,702.704)">
                <path d="M702.177,596.153L1214.91,598.825L1214.91,640.62L700.395,640.62L702.177,596.153Z" style="fill:rgb(94,59,59);fill-rule:nonzero;"/>
            </g>
            <g transform="matrix(0.591355,0.587577,2.62615e-16,1,-92.5251,-741.708)">
                <path d="M702.177,596.153L1214.91,598.825L1214.91,640.62L700.395,640.62L702.177,596.153Z" style="fill-rule:nonzero;"/>
            </g>
            <g transform="matrix(0.591355,0.587577,2.62615e-16,1,1009.83,-715.68)">
                <path d="M702.177,596.153L1214.91,598.825L1214.91,640.62L700.395,640.62L702.177,596.153Z" style="fill-rule:nonzero;"/>
            </g>
            <g transform="matrix(0.591355,0.587577,2.62615e-16,1,994.429,305.958)">
                <path d="M702.177,596.153L1214.91,598.825L1214.91,640.62L700.395,640.62L702.177,596.153Z" style="fill:rgb(94,59,59);fill-rule:nonzero;"/>
            </g>
            <g transform="matrix(0.591355,0.587577,2.62615e-16,1,-108.52,305.958)">
                <path d="M702.177,596.153L1214.91,598.825L1214.91,640.62L700.395,640.62L702.177,596.153Z" style="fill-rule:nonzero;"/>
            </g>
            <g transform="matrix(1,0,0,1,-48.7642,-97.5284)">
                <path d="M292.815,789.932C401.772,858.534 481.136,927.81 530.907,997.757L480.464,1040.13C429.348,966.146 352.674,895.526 250.443,828.269L219.267,797.248L251.352,758.999L292.815,789.932Z" style="fill-rule:nonzero;"/>
            </g>
            <g transform="matrix(1,0,0,1,1.36465,-1.33165)">
                <rect x="625.74" y="644.656" width="40.354" height="512.502" style="fill-rule:nonzero;"/>
            </g>
            <g transform="matrix(1,0,0,1,-328.87,171.069)">
                <rect x="625.74" y="644.656" width="40.354" height="512.502" style="fill-rule:nonzero;"/>
            </g>
            <g transform="matrix(1,0,0,1,-326.242,-346.25)">
                <rect x="625.74" y="644.656" width="40.354" height="512.502" style="fill-rule:nonzero;"/>
            </g>
            <g transform="matrix(1,0,-2.76056e-31,1,762.695,-303.4)">
                <rect x="625.74" y="644.656" width="40.354" height="512.502" style="fill:rgb(94,59,59);fill-rule:nonzero;"/>
            </g>
            <g transform="matrix(1,0,0,1,762.695,184.93)">
                <rect x="625.74" y="644.656" width="40.354" height="512.502" style="fill:rgb(94,59,59);fill-rule:nonzero;"/>
            </g>
            <g transform="matrix(1,0,0,1,-35.1647,2.70379)">
                <path d="M1216.93,597.043L1733.23,599.716L1731.45,640.62L1216.93,640.62L1216.93,597.043Z" style="fill-rule:nonzero;"/>
            </g>
            <g transform="matrix(1,0,0,1,39.8535,-35.7886)">
                <rect x="791.193" y="856.517" width="86.762" height="86.762" style="fill-rule:nonzero;"/>
            </g>
            <g transform="matrix(1,0,0,1,-14.6932,-1.48735)">
                <path d="M1222.99,1088.56L1037.36,751.595L1075.69,729.4L1122.1,812.127L1323.87,812.127L1370.28,729.4L1408.62,751.595L1222.99,1088.56ZM1142.28,854.499L1222.99,997.757L1303.69,854.499L1142.28,854.499Z" style="fill-rule:nonzero;"/>
            </g>
            <g transform="matrix(1,0,0,1,-48.511,-24.9943)">
                <rect x="1566" y="856.517" width="86.762" height="86.762" style="fill-rule:nonzero;"/>
            </g>
            <g transform="matrix(1,0,0,1,-39.898,-2.21655)">
                <rect x="1779.88" y="644.656" width="40.354" height="512.502" style="fill-rule:nonzero;"/>
            </g>
            <g transform="matrix(1,0,0,1,-270.42,-190.624)">
                <path d="M2012.23,1032.13C1987.7,1055.62 1961.37,1077.01 1933.22,1094.76L1898.95,1078.07L1884.8,1048.2C1933.62,1023.25 1976.32,992.164 2012.9,954.956" style="fill:rgb(94,59,59);fill-rule:nonzero;"/>
            </g>
            <g transform="matrix(1,0,0,1,-270.42,-190.624)">
                <path d="M2012.9,954.956C2021.66,946.035 2030.08,936.762 2038.15,927.137C2081.19,876.021 2114.82,805.401 2139.03,715.276L2166.61,713.608L2193.51,739.489C2202.93,744.869 2203.65,757.099 2190.2,762.48C2161.95,840.498 2127.6,895.526 2092.62,941.261C2068.43,972.794 2041.63,1003.97 2012.23,1032.13" style="fill-rule:nonzero;"/>
            </g>
            <g transform="matrix(1,0,0,1,43.7368,-12.1499)">
                <rect x="583.367" y="1161.19" width="40.354" height="512.502" style="fill-rule:nonzero;"/>
            </g>
            <g transform="matrix(1,0,0,1,15.5159,3.32483)">
                <path d="M664.076,1651.5L1178.6,1651.5L1178.6,1695.08L664.076,1691.51L664.076,1651.5Z" style="fill-rule:nonzero;"/>
            </g>
            <g transform="matrix(1,0,0,1,27.679,-3.82841)">
                <path d="M1180.61,1651.5L1695.13,1651.5L1691.57,1687.95L1185.96,1695.97L1180.61,1651.5Z" style="fill-rule:nonzero;"/>
            </g>
            <g transform="matrix(1,0,0,1,9.09495e-13,-4.43311)">
                <rect x="1737.51" y="1161.19" width="40.354" height="512.502" style="fill-rule:nonzero;"/>
            </g>
            <g transform="matrix(1,0,0,1,-157.375,-182.866)">
                <path d="M977.928,1839.54L979.208,2189.34C978.469,2207.48 957.862,2214.49 935.706,2195.12C933.216,2192.94 922.327,2176.59 922.327,2176.59L921.438,1839.04" style="fill-rule:nonzero;"/>
            </g>
            <g transform="matrix(1,0,0,1,-157.375,-182.866)">
                <path d="M921.438,1839.04L921.035,1685.75C922.733,1672.69 930.526,1648.89 957.508,1669.94C960.31,1672.12 977.426,1702.27 977.426,1702.27L977.928,1839.54" style="fill:rgb(94,59,59);fill-rule:nonzero;"/>
            </g>
            <g transform="matrix(1,0,0,1,-186.191,-179.541)">
                <path d="M1382.65,1834.37L1381.55,1683.97C1379.07,1666.49 1395.22,1648.88 1420.91,1669.17C1423.95,1671.57 1436.16,1695.08 1436.16,1695.08L1437.12,1827.97" style="fill:rgb(94,59,59);fill-rule:nonzero;"/>
            </g>
            <g transform="matrix(1,0,0,1,-186.191,-179.541)">
                <path d="M1437.12,1827.97L1439.72,2185.78C1438.26,2205.83 1416.23,2209.93 1399.14,2196.43C1396.34,2194.22 1385.11,2170.15 1385.11,2170.15L1382.65,1834.37" style="fill-rule:nonzero;"/>
            </g>
        </g>
    </g>
</svg>
